X: 558
T: Absent Friends
R: reel
M: 4/4
K: Fmajor
FG|:A6 GF|G6 EF|G4 c3 E|E2 F4 DE|
F6 DE|F6 DE|F3 E F3 G|1 {A2B2}A2 G4 FG:|2 {B2A2}A2 G4 ED||
|:C4 c2 BA|F6 DC|C4 c2 BA|F6 AG|F6 AG|
F6 DE|F3 E F3 G|{A2B2}A2 G4 ED:|

